**kern	**kern
*staff1	*staff1
*solos[solo1,solo2,solo3]
=1-	=1-	!!Head
*clefG2	*clefG2
*k[]	*k[]
*A-:	*A-:
*M4/4	*M4/4
*>head1
{[2e-/	1A-:maj
8e-/L]	.
8f/	.
8g/	.
8a-/J	.
=2	=2
8b-/L	1A-:maj
8a-/	.
8g/	.
8a-/J	.
8cc\L	.
8ee-\J}	.
4r	.
=3	=3
2r	1G:min
{8f#/L	.
8g/	.
8b-/	.
8dd/J	.
=4	=4
8ff\L	1C:dom
8dd\	.
8ee-\	.
8een\J	.
8cc\L	.
8cc#\	.
8dd\	.
8ccn\J	.
=5	=5
8b-/L	1F:min
8a-/	.
8g/	.
8f/J	.
8e/L	.
8g/	.
8b-/	.
8dd-/J	.
=6	=6
8cc\L	1F:min
8b\	.
8b-\	.
8a\J	.
8a-/L	.
8f/J}	.
4r	.
=7	=7
2r	1F:o7
{8g/L	.
8f/	.
8d/	.
8B-/J	.
=8	=8
2B/	1F:o7
8g/L	.
8g-/	.
8f/	.
8e/J	.
=9	=9
8e-/L	1A-:maj
8d-/	.
8c/	.
8e-/J	.
8f/L	.
8g/	.
8b-/	.
8g/J}	.
=10||	=10||
2r	1A-:maj
{8a/L	.
8f#/	.
8d/	.
8B/J	.
=11	=11
8a-/L	1B-:min
8f/J}	.
4r	.
4r	.
{8cc\L	.
8b-\J	.
=12	=12
8a-/L	1E-:dom
8f/	.
8d-/	.
8B-/J	.
4Bn/}	.
4r	.
=13	=13
4r	2A-:maj
{8g/L	.
8f/J	.
8e-/L	2A-:dom
8d-/	.
8c/	.
8e-/J	.
=14	=14
8b-/L	2D-:maj
8g-/	.
8e-/	.
8B-/J	.
8a-/L	2D-:min
8f/	.
8d-/	.
8B-/J	.
=15	=15
8c/L	1A-:maj
8e-/J}	.
4r	.
2r	.
=16	=16
1r	1E-:dom
=17	=17	!!Chorus 1
4r	1A-:maj
*>solo1
{8g/L	.
8g-/J	.
8f/L	.
8e/	.
8e-/	.
8d-/J	.
=18||	=18||
8c/L	1A-:maj
8e-/	.
8f/	.
8g/J	.
8b-/L	.
8a-/	.
8g/	.
8f/J	.
=19	=19
8e/L	1G:min
8g/	.
8b-/	.
8cc/J	.
8dd-\L	.
8cc\	.
8b-\	.
8a-\J	.
=20	=20
8g/L	1C:dom
8f/	.
8e/	.
8g/J	.
8b-\L	.
8dd-\	.
8cc\	.
8b-\J	.
=21	=21
4a-/}	1F:min
4r	.
{8F/L	.
8A-/	.
8c/	.
8A-/J	.
=22	=22
8G/L	1F:min
8B-/	.
8d-/	.
8B-/J	.
8A-/L	.
8c/	.
8f/	.
8a-/J	.
=23	=23
8g/L	1F:o7
8f/	.
8e/	.
8g/J	.
8b-\L	.
8dd-\	.
8cc\	.
8b-\J	.
=24	=24
4a-/}	1F:o7
4r	.
8r	.
{8g/	.
12a-\L	.
12cc\	.
12ee-\J	.
=25	=25
8gg\L	1A-:maj
8gg-\	.
8ff\	.
8ee\J	.
8ee-\L	.
8cc\J	.
12dd-\L	.
12ee-\	.
12dd-\J	.
=26||	=26||
8cc/L	2A-:maj
8b-/	.
8a/	.
8c/J	.
8e-/L	2F:dom
8g-/	.
8f/	.
8en/J	.
=27	=27
8e-/L	2B-:maj
8c/	.
8d-/	.
8G/J	.
8B-/L	.
8d-/	.
8c/	.
8B-/J	.
=28	=28
8A-/L	1E-:dom
8G-/	.
8Gn/	.
8B-/J	.
12d-/L	.
12e/	.
12g/J	.
4e/}	.
=29	=29
2r	2A-:maj
{8c/L	2A-:dom
8d-/	.
8e/	.
[8e-/J	.
=30	=30
8e-/L]	2D-:maj
8c/J	.
12d-/L	.
12e-/	.
12d-/J	.
8c/L	2D-:min
8B-/J}	.
4r	.
=31	=31
4r	1A-:maj
{8e-/L	.
8d-/J	.
8c/L	.
8e-/	.
8g/	.
8a-/J	.
=32	=32
8b-/L	2G:h7
8a-/	.
8g/	.
8f/J	.
8e/L	2C:dom
8g/	.
8b-/	.
8dd-/J	.
=33	=33
8cc/L	1F:min
8a-/	.
8f/	.
8d-/J	.
8b-/L	.
8g/	.
8e/	.
8d-/J	.
=34||	=34||
8a-/L	1F:min
8f/J}	.
4r	.
2r	.
=35	=35
8r	1B-:min
{8B-/	.
16d-/LL	.
16f/	.
16a-/	.
16cc/JJ	.
8ee-\	.
8r	.
8ee-\L	.
[8dd-\J	.
=36	=36
8dd-\L]	1F:min
8dd-\J	.
4cc\}	.
2r	.
=37	=37
2r	1C:dom
{12ee\L	.
12ff\	.
12ff#\J	.
12gg\L	.
12ff#\	.
12ffn\J	.
=38	=38
8ee\L	1C:dom
8g\	.
8b-\	.
8cc\J	.
12dd-\L	.
12cc\	.
12b-\J}	.
4r	.
=39	=39
4r	1D-:dom
{12b\L	.
12cc\	.
12b\J	.
8b-/L	.
8a-/	.
8g/	.
8f/J	.
=40	=40
8e/L	1C:dom
8g/	.
8b-/	.
8dd-/J	.
8cc\L	.
8bn\	.
8b-\	.
8a\J	.
=41	=41
8a-/L	1F:min
8c/	.
8f/	.
8a-/J	.
8g/L	.
8f/	.
8e/	.
8c/J	.
=42||	=42||
8f/L	1F:min
8c/	.
8A-/	.
8G/J	.
8F/L	.
8d-/	.
8B-/	.
8Bn/J	.
=43	=43
8c/L	1B-:min
8A-/	.
8F/	.
8G/J	.
8B-/L	.
8G/	.
8A-/	.
8B-/J	.
=44	=44
8G/L	1F:min
[8F/J	.
4F/]}	.
2r	.
=45	=45
2r	1B-:dom
{8f/L	.
8a-/	.
8cc/	.
8ee-/J	.
=46	=46
8dd\L	1B-:dom
8b-\	.
8bn\	.
8cc\J	.
8a-/L	.
8g/	.
8f/	.
8e-/J	.
=47	=47
4d-/}	1B-:min
4r	.
8r	.
{8e/L	.
8f/	.
8a-/J	.
=48	=48
8cc\L	1E-:dom
[8b-\J	.
4b-\]}	.
2r	.
=49	=49	!!Chorus 2
4r	1A-:maj
*>solo2
{8B/L	.
8c/J	.
8e-/L	.
8f/	.
8g/	.
8a-/J	.
=50||	=50||
8b-/L	1A-:maj
8a-/	.
8g/	.
8a-/J	.
8cc\L	.
8ee-\J}	.
4r	.
=51	=51
2r	1G:min
{8f#/L	.
8g/	.
8b-/	.
8dd/J	.
=52	=52
8ff\L	1C:dom
8dd\	.
8ee-\	.
8een\J	.
8cc\L	.
8cc#\	.
8dd\	.
8ccn\J	.
=53	=53
8b-/L	1F:min
8a-/	.
8g/	.
8f/J	.
8e/L	.
8g/	.
8b-/	.
8dd-/J	.
=54	=54
8cc\L	1F:min
8b\	.
8b-\	.
8a\J	.
8a-/L	.
8f/J}	.
4r	.
=55	=55
8r	1F:dom:9-
{8G#/	.
12A/L	.
12c/	.
12e-/J	.
8g-/L	.
8f/	.
8e-/	.
8d-/J	.
=56	=56
8c/L	1F:dom:9-
8B-/	.
8A/	.
8c/J	.
8e-/L	.
8g-/	.
8f/	.
8e-/J	.
=57	=57
8d-/L	1B-:min
8F/	.
8B-/	.
8d-/J	.
8c/L	.
8B-/	.
8A/	.
8B-/J	.
=58||	=58||
8c/L	1B-:min
8A/	.
8B-/	.
8c/J	.
8d-/L	.
8e-/	.
8f/	.
8a-/J	.
=59	=59
4cc\	1B-:min
8ee-\L	.
[8b-\J	.
4b-\]}	.
4r	.
=60	=60
1r	1E-:dom
=61	=61
{4a-/	2A-:maj
12cc\L	.
12dd-\	2A-:dom
12ee-\J	.
4dd-\	.
4dd-\	.
=62	=62
4cc\	2D-:maj
8cc\L	.
8b-\J}	.
4r	2D-:min
{8g/L	.
8a-/J	.
=63	=63
8cc\L	1A-:maj
8ee-\	.
8dd\	.
8b\J	.
8a-/L	.
8f/	.
8e/	.
8g/J	.
=64	=64
8b-\L	2B-:min
8dd-\	.
8cc\	.
8bn\J	.
8b-/L	2E-:dom
8a/	.
8a-/	.
8g/J	.
=65	=65
8g-/L	1A-:maj
8f/	.
8e/	.
8B/J	.
8d-/L	.
8e/	.
8e-/	.
8d-/J	.
=66||	=66||
4c/}	1A-:maj
4r	.
2r	.
=67	=67
1r	.
=68	=68
1r	.
=69	=69
1r	.
=70	=70
1r	.
=71	=71
1r	.
=72	=72
1r	.
=73	=73
1r	.
=74	=74
1r	.
=75	=75
1r	.
=76	=76
1r	.
=77	=77
1r	.
=78	=78
1r	.
=79	=79
1r	.
=80	=80
1r	.
=81	=81
1r	.
=82	=82
1r	.
=83	=83
1r	.
=84	=84
1r	.
=85	=85
1r	.
=86	=86
1r	.
=87	=87
1r	.
=88	=88
1r	.
=89	=89
1r	.
=90	=90
1r	.
=91	=91
1r	.
=92	=92
1r	.
=93	=93
1r	.
=94	=94
1r	.
=95	=95
1r	.
=96	=96
1r	.
=97	=97
1r	.
=98	=98
1r	.
=99	=99
1r	.
=100	=100
1r	.
=101	=101
1r	.
=102	=102
1r	.
=103	=103
1r	.
=104	=104
1r	.
=105	=105
1r	.
=106	=106
1r	.
=107	=107
1r	.
=108	=108
1r	.
=109	=109
1r	.
=110	=110
1r	.
=111	=111
1r	.
=112	=112
1r	.
=113	=113
1r	.
=114	=114
1r	.
=115	=115
1r	.
=116	=116
1r	.
=117	=117
1r	.
=118	=118
1r	.
=119	=119
1r	.
=120	=120
1r	.
=121	=121
1r	.
=122	=122
1r	.
=123	=123
1r	.
=124	=124
1r	.
=125	=125
1r	.
=126	=126
1r	.
=127	=127
1r	.
=128	=128
1r	.
=129	=129
1r	.
=130||	=130||
1r	.
=131	=131
1r	.
=132	=132
1r	.
=133	=133
1r	.
=134	=134
1r	.
=135	=135
1r	.
=136	=136
1r	.
=137	=137
1r	.
=138	=138
1r	.
=139	=139
1r	.
=140	=140
1r	.
=141	=141
1r	.
=142	=142
1r	.
=143	=143
1r	.
=144	=144
1r	.
=145	=145
1r	.
=146	=146
1r	.
=147	=147
1r	.
=148	=148
1r	.
=149	=149
1r	.
=150	=150
1r	.
=151	=151
1r	.
=152	=152
1r	.
=153	=153
1r	.
=154	=154
1r	.
=155	=155
1r	.
=156	=156
1r	.
=157	=157
1r	.
=158	=158
1r	.
=159	=159
1r	.
=160	=160
1r	.
=161	=161
1r	.
=162	=162
1r	.
=163	=163
1r	.
=164	=164
1r	.
=165	=165
1r	.
=166	=166
1r	.
=167	=167
1r	.
=168	=168
1r	.
=169	=169
1r	.
=170	=170
1r	.
=171	=171
1r	.
=172	=172
1r	.
=173	=173
1r	.
=174	=174
1r	.
=175	=175
1r	.
=176	=176
1r	.
=177	=177
1r	.
=178	=178
1r	.
=179	=179
1r	.
=180	=180
1r	.
=181	=181
1r	.
=182	=182
1r	.
=183	=183
1r	.
=184	=184
1r	.
=185	=185
1r	.
=186	=186
1r	.
=187	=187
1r	.
=188	=188
1r	.
=189	=189
1r	.
=190	=190
1r	.
=191	=191
1r	.
=192	=192
1r	.
=193	=193
1r	.
=194||	=194||
1r	.
=195	=195
1r	.
=196	=196
1r	.
=197	=197
1r	.
=198	=198
1r	.
=199	=199
1r	.
=200	=200
1r	.
=201	=201
1r	.
=202	=202
1r	.
=203	=203
1r	.
=204	=204
1r	.
=205	=205
1r	.
=206	=206
1r	.
=207	=207
1r	.
=208	=208
1r	.
=209	=209
4r	1A-:maj	!!Chorus 3
*>solo3
{8B/L	.
8c/J	.
8e-/L	.
8d-/	.
8c/	.
8e-/J	.
=210||	=210||
8f/L	1A-:maj
8g/	.
8b-/	.
8g/J	.
8a-/L	.
8e-/J}	.
4r	.
=211	=211
{12cc\L	1G:min
12dd-\	.
12cc\J	.
8b-/L	.
8a-/J	.
8g/L	.
8f/	.
8e/	.
8g/J	.
=212	=212
8b-\L	1C:dom
8dd-\	.
8b-\	.
8g\J	.
8cc\L	.
8bn\	.
8b-\	.
8a\J	.
=213	=213
8a-/L	1F:min
8f/J}	.
4r	.
2r	.
=214	=214
1r	1F:min
=215	=215
1r	.
=216	=216
1r	.
=217	=217
2r	1B-:min
{8f\L	.
8b-\	.
8dd-\	.
8ff\J	.
=218||	=218||
8ee-\L	1B-:min
8cc\J}	.
4r	.
2r	.
=219	=219
{8dd-/L	1B-:min
8f/	.
8a-/	.
8cc/J	.
8b-\	.
4a-/	.
8f/	.
=220	=220
4g/}	1E-:dom
4r	.
2r	.
=221	=221
8r	1A-:maj
{8b\L	.
8cc\	.
8ee-\J	.
8b/L	.
8a-/J	.
4f/	.
=222	=222
4a-/	1A-:maj
8a-/L	.
[8g-/J	.
8g-/L]	.
8g-/J	.
4e-/	.
=223	=223
8r	1A-:maj
8b\L	.
8cc\	.
8ee-\J	.
12b\L	.
12b-\	.
12a-\J	.
8f/L	.
8e-/J	.
=224	=224
4a-/	1A-:maj
8a-/L	.
[8g-/J	.
8g-/L]	.
8g-/J	.
4e-};/	.
==	==
*-	*-
